austria/municipalities/41712.svg

<?xml version="1.0" encoding="UTF-8"?>
<!DOCTYPE svg PUBLIC "-//W3C//DTD SVG 1.1//EN" "http://www.w3.org/Graphics/SVG/1.1/DTD/svg11.dtd">
<svg xmlns="http://www.w3.org/2000/svg" version="1.1" width="166px" height="207px" style="shape-rendering:geometricPrecision; text-rendering:geometricPrecision; image-rendering:optimizeQuality; fill-rule:evenodd; clip-rule:evenodd" xmlns:xlink="http://www.w3.org/1999/xlink">
<g><path style="opacity:1" fill="#000000" d="M -0.5,-0.5 C 54.8333,-0.5 110.167,-0.5 165.5,-0.5C 165.5,44.1667 165.5,88.8333 165.5,133.5C 157.503,172.498 134.169,196.831 95.5,206.5C 86.8333,206.5 78.1667,206.5 69.5,206.5C 29.593,196.928 6.25968,171.928 -0.5,131.5C -0.5,87.5 -0.5,43.5 -0.5,-0.5 Z"/></g>
<g><path style="opacity:1" fill="#00612a" d="M 3.5,3.5 C 56.1667,3.5 108.833,3.5 161.5,3.5C 161.667,43.8347 161.5,84.168 161,124.5C 156.531,120.515 151.364,118.181 145.5,117.5C 139.75,118.473 134.25,120.14 129,122.5C 124.127,121.314 119.294,119.98 114.5,118.5C 109.167,120.167 103.833,121.833 98.5,123.5C 92.7975,121.063 86.9641,119.063 81,117.5C 75.3764,119.042 69.7097,120.375 64,121.5C 58.8642,120.293 53.6975,118.959 48.5,117.5C 43.0161,118.773 37.6828,120.44 32.5,122.5C 27.4347,120.534 22.268,118.867 17,117.5C 12.7005,118.449 8.53383,119.783 4.5,121.5C 3.5001,82.1723 3.16676,42.839 3.5,3.5 Z"/></g>
<g><path style="opacity:1" fill="#000000" d="M 57.5,20.5 C 59.8211,20.2289 61.8211,20.8955 63.5,22.5C 64.5,21.8333 65.5,21.1667 66.5,20.5C 72.7655,26.2636 78.9321,32.2636 85,38.5C 85.3334,40.0468 84.8334,41.3801 83.5,42.5C 97.2124,55.522 111.879,67.3553 127.5,78C 136.17,79.3146 140.337,84.1479 140,92.5C 136.82,98.7824 132.32,99.949 126.5,96C 108.125,82.6315 90.6252,68.1315 74,52.5C 71.7328,53.9348 69.7328,53.6015 68,51.5C 64.8891,55.3869 62.5557,59.7202 61,64.5C 59.6686,69.8287 58.3353,75.162 57,80.5C 56.6121,81.428 55.9454,82.0946 55,82.5C 43.2565,74.7073 33.0898,65.2073 24.5,54C 32.8613,50.1457 40.1947,44.8124 46.5,38C 49.2726,39.1904 51.6059,38.5237 53.5,36C 53.4536,32.5414 53.287,29.0414 53,25.5C 54.7073,23.9625 56.2073,22.2959 57.5,20.5 Z"/></g>
<g><path style="opacity:1" fill="#fea700" d="M 59.5,22.5 C 60.2891,22.7828 60.9558,23.2828 61.5,24C 54.9426,29.9406 54.276,29.4406 59.5,22.5 Z"/></g>
<g><path style="opacity:1" fill="#fea700" d="M 65.5,22.5 C 66.2389,22.369 66.9056,22.5357 67.5,23C 72.3158,28.9828 77.6491,34.4828 83.5,39.5C 79.8525,43.9819 76.0192,48.3152 72,52.5C 70.6218,50.7866 68.9552,49.4533 67,48.5C 61.4454,58.6116 57.2787,69.2783 54.5,80.5C 44.0561,72.8908 34.7227,64.0574 26.5,54C 34.6707,51.0819 41.6707,46.4152 47.5,40C 53.1418,41.0276 55.6418,38.5276 55,32.5C 59.0483,29.6154 62.5483,26.2821 65.5,22.5 Z"/></g>
<g><path style="opacity:1" fill="#f6a103" d="M 85.5,49.5 C 94.416,55.4136 102.749,62.0802 110.5,69.5C 118.205,75.0165 126.205,80.0165 134.5,84.5C 137.05,84.8844 138.383,86.3844 138.5,89C 136.651,96.0519 132.651,97.3852 126.5,93C 109.209,79.3777 92.2089,65.3777 75.5,51C 77.3501,48.9824 79.3501,47.1491 81.5,45.5C 83.3747,46.4095 84.708,47.7428 85.5,49.5 Z"/></g>
<g><path style="opacity:1" fill="#000000" d="M 85.5,49.5 C 86.3678,51.8919 85.7012,52.0586 83.5,50C 84.0944,49.5357 84.7611,49.369 85.5,49.5 Z"/></g>
<g><path style="opacity:1" fill="#000000" d="M 91.5,55.5 C 89.9719,55.4827 89.4719,54.816 90,53.5C 90.7172,54.0442 91.2172,54.7109 91.5,55.5 Z"/></g>
<g><path style="opacity:1" fill="#000000" d="M 91.5,55.5 C 92.5,55.8333 93.1667,56.5 93.5,57.5C 92.1667,57.5 91.5,56.8333 91.5,55.5 Z"/></g>
<g><path style="opacity:1" fill="#000000" d="M 93.5,57.5 C 94.2891,57.7828 94.9558,58.2828 95.5,59C 94.184,59.5281 93.5173,59.0281 93.5,57.5 Z"/></g>
<g><path style="opacity:1" fill="#000000" d="M 101.5,63.5 C 102.289,63.7828 102.956,64.2828 103.5,65C 102.184,65.5281 101.517,65.0281 101.5,63.5 Z"/></g>
<g><path style="opacity:1" fill="#000000" d="M 110.5,69.5 C 110.5,70.1667 110.5,70.8333 110.5,71.5C 108.067,70.4523 108.067,69.7856 110.5,69.5 Z"/></g>
<g><path style="opacity:1" fill="#000000" d="M 110.5,71.5 C 111.756,71.4614 112.756,71.9614 113.5,73C 112.002,73.5847 111.002,73.0847 110.5,71.5 Z"/></g>
<g><path style="opacity:1" fill="#000000" d="M 116.5,75.5 C 117.289,75.7828 117.956,76.2828 118.5,77C 117.184,77.5281 116.517,77.0281 116.5,75.5 Z"/></g>
<g><path style="opacity:1" fill="#000000" d="M 134.5,84.5 C 134.938,86.9638 133.938,87.1304 131.5,85C 132.448,84.5172 133.448,84.3505 134.5,84.5 Z"/></g>
<g><path style="opacity:1" fill="#fea700" d="M 45.5,119.5 C 47.8568,119.337 50.1902,119.503 52.5,120C 56.1796,122.339 60.1796,123.839 64.5,124.5C 69.9029,122.757 75.4029,121.09 81,119.5C 85.5957,120.382 89.7624,122.215 93.5,125C 96.8333,125.667 100.167,125.667 103.5,125C 110.031,120.018 116.698,119.685 123.5,124C 126.833,124.667 130.167,124.667 133.5,124C 142.614,117.815 151.28,118.482 159.5,126C 161.619,128.218 161.952,130.718 160.5,133.5C 155.198,129.233 149.198,127.733 142.5,129C 139.246,130.842 135.746,131.675 132,131.5C 126.318,130.387 120.652,129.054 115,127.5C 108.597,128.801 102.43,130.801 96.5,133.5C 92.0908,130.964 87.4241,128.964 82.5,127.5C 77.6906,129.326 72.8573,130.992 68,132.5C 62.1617,131.414 56.495,129.747 51,127.5C 45.1769,128.877 39.6769,130.877 34.5,133.5C 28.536,131.102 22.3694,129.436 16,128.5C 11.843,128.825 8.00971,130.158 4.5,132.5C 3.51592,129.572 3.18259,126.572 3.5,123.5C 8.23761,122.108 13.0709,121.108 18,120.5C 22.8722,121.686 27.7056,123.019 32.5,124.5C 37.4578,124.149 41.7911,122.482 45.5,119.5 Z"/></g>
<g><path style="opacity:1" fill="#002b72" d="M 14.5,130.5 C 21.1598,132.161 27.8264,133.828 34.5,135.5C 38.1674,135.988 41.1674,134.822 43.5,132C 45.7438,131.094 48.0772,130.594 50.5,130.5C 56.1142,132.146 61.7809,133.479 67.5,134.5C 69.5,134.333 71.5,134.167 73.5,134C 76.3208,131.999 79.4875,130.833 83,130.5C 87.5003,132.676 92.167,134.342 97,135.5C 102.708,132.991 108.708,131.325 115,130.5C 120.556,131.7 126.056,133.033 131.5,134.5C 136.553,133.48 141.553,132.147 146.5,130.5C 152.788,130.635 157.454,133.302 160.5,138.5C 152.906,171.26 132.906,192.094 100.5,201C 59.5961,207.631 29.4294,192.797 10,156.5C 8.01023,150.207 6.1769,143.874 4.5,137.5C 6.77708,133.692 10.1104,131.359 14.5,130.5 Z"/></g>
<g><path style="opacity:1" fill="#fefffe" d="M -0.5,131.5 C 6.25968,171.928 29.593,196.928 69.5,206.5C 46.1667,206.5 22.8333,206.5 -0.5,206.5C -0.5,181.5 -0.5,156.5 -0.5,131.5 Z"/></g>
<g><path style="opacity:1" fill="#fefffe" d="M 165.5,133.5 C 165.5,157.833 165.5,182.167 165.5,206.5C 142.167,206.5 118.833,206.5 95.5,206.5C 134.169,196.831 157.503,172.498 165.5,133.5 Z"/></g>
<g><path style="opacity:1" fill="#000000" d="M 113.5,141.5 C 114.458,141.953 115.292,142.619 116,143.5C 119.55,169.409 108.383,184.076 82.5,187.5C 56.6202,184.085 45.4536,169.418 49,143.5C 49.414,143.043 49.914,142.709 50.5,142.5C 53.6017,151.185 58.6017,158.685 65.5,165C 83.7737,174.427 98.607,170.594 110,153.5C 111.476,149.56 112.643,145.56 113.5,141.5 Z"/></g>
<g><path style="opacity:1" fill="#fea700" d="M 50.5,147.5 C 59.7877,170.804 76.1211,177.637 99.5,168C 106.647,163.201 111.48,156.701 114,148.5C 115.813,166.692 107.979,178.525 90.5,184C 70.7985,186.937 57.6318,179.103 51,160.5C 50.501,156.179 50.3343,151.846 50.5,147.5 Z"/></g>
</svg>

<svg xmlns="http://www.w3.org/2000/svg" width="166" height="207" style="shape-rendering:geometricPrecision;text-rendering:geometricPrecision;image-rendering:optimizeQuality;fill-rule:evenodd;clip-rule:evenodd"><path style="opacity:1" d="M-.5-.5h166v134c-7.997 38.998-31.331 63.331-70 73h-26c-39.907-9.572-63.24-34.572-70-75V-.5z"/><path style="opacity:1" fill="#00612a" d="M3.5 3.5h158c.167 40.335 0 80.668-.5 121-4.469-3.985-9.636-6.319-15.5-7a67.57 67.57 0 0 0-16.5 5 247.794 247.794 0 0 1-14.5-4l-16 5a125.317 125.317 0 0 0-17.5-6 238.938 238.938 0 0 1-17 4 373.7 373.7 0 0 1-15.5-4 111.534 111.534 0 0 0-16 5 139.951 139.951 0 0 0-15.5-5 70.825 70.825 0 0 0-12.5 4 3481.88 3481.88 0 0 1-1-118z"/><path style="opacity:1" d="M57.5 20.5c2.321-.271 4.321.395 6 2l3-2a465.986 465.986 0 0 1 18.5 18c.333 1.547-.167 2.88-1.5 4a350.043 350.043 0 0 0 44 35.5c8.67 1.315 12.837 6.148 12.5 14.5-3.18 6.282-7.68 7.449-13.5 3.5A542.515 542.515 0 0 1 74 52.5c-2.267 1.435-4.267 1.102-6-1a40.872 40.872 0 0 0-7 13c-1.331 5.329-2.665 10.662-4 16-.388.928-1.055 1.595-2 2C43.257 74.707 33.09 65.207 24.5 54c8.361-3.854 15.695-9.188 22-16 2.773 1.19 5.106.524 7-2a155.854 155.854 0 0 0-.5-10.5 31.444 31.444 0 0 0 4.5-5z"/><path style="opacity:1" fill="#fea700" d="M59.5 22.5c.79.283 1.456.783 2 1.5-6.557 5.94-7.224 5.44-2-1.5zM65.5 22.5a2.428 2.428 0 0 1 2 .5 124.68 124.68 0 0 0 16 16.5 211.38 211.38 0 0 1-11.5 13 14.505 14.505 0 0 0-5-4 132.158 132.158 0 0 0-12.5 32 150.522 150.522 0 0 1-28-26.5c8.17-2.918 15.17-7.585 21-14 5.642 1.028 8.142-1.472 7.5-7.5 4.048-2.885 7.548-6.218 10.5-10z"/><path style="opacity:1" fill="#f6a103" d="M85.5 49.5a179.812 179.812 0 0 1 25 20 224.841 224.841 0 0 0 24 15c2.55.384 3.883 1.884 4 4.5-1.849 7.052-5.849 8.385-12 4a1526.678 1526.678 0 0 1-51-42 46.656 46.656 0 0 1 6-5.5c1.875.91 3.208 2.243 4 4z"/><path style="opacity:1" d="M85.5 49.5c.868 2.392.201 2.559-2 .5a2.428 2.428 0 0 1 2-.5zM91.5 55.5c-1.528-.017-2.028-.684-1.5-2 .717.544 1.217 1.21 1.5 2zM91.5 55.5c1 .333 1.667 1 2 2-1.333 0-2-.667-2-2zM93.5 57.5c.79.283 1.456.783 2 1.5-1.316.528-1.983.028-2-1.5zM101.5 63.5c.789.283 1.456.783 2 1.5-1.316.528-1.983.028-2-1.5zM110.5 69.5v2c-2.433-1.048-2.433-1.714 0-2zM110.5 71.5c1.256-.039 2.256.461 3 1.5-1.498.585-2.498.085-3-1.5zM116.5 75.5c.789.283 1.456.783 2 1.5-1.316.528-1.983.028-2-1.5zM134.5 84.5c.438 2.464-.562 2.63-3 .5a4.932 4.932 0 0 1 3-.5z"/><path style="opacity:1" fill="#fea700" d="M45.5 119.5c2.357-.163 4.69.003 7 .5a30.818 30.818 0 0 0 12 4.5 488.73 488.73 0 0 1 16.5-5c4.596.882 8.762 2.715 12.5 5.5 3.333.667 6.667.667 10 0 6.531-4.982 13.198-5.315 20-1 3.333.667 6.667.667 10 0 9.114-6.185 17.78-5.518 26 2 2.119 2.218 2.452 4.718 1 7.5-5.302-4.267-11.302-5.767-18-4.5-3.254 1.842-6.754 2.675-10.5 2.5a233.18 233.18 0 0 1-17-4 85.714 85.714 0 0 0-18.5 6 65.31 65.31 0 0 0-14-6 248.02 248.02 0 0 1-14.5 5 86.679 86.679 0 0 1-17-5c-5.823 1.377-11.323 3.377-16.5 6a80.974 80.974 0 0 0-18.5-5c-4.157.325-7.99 1.658-11.5 4a21.12 21.12 0 0 1-1-9 90.765 90.765 0 0 1 14.5-3 247.27 247.27 0 0 1 14.5 4c4.958-.351 9.291-2.018 13-5z"/><path style="opacity:1" fill="#002b72" d="M14.5 130.5c6.66 1.661 13.326 3.328 20 5 3.667.488 6.667-.678 9-3.5a20.702 20.702 0 0 1 7-1.5 160.878 160.878 0 0 0 17 4l6-.5c2.82-2.001 5.987-3.167 9.5-3.5a69.01 69.01 0 0 0 14 5c5.708-2.509 11.708-4.175 18-5a336.16 336.16 0 0 1 16.5 4 126.998 126.998 0 0 0 15-4c6.288.135 10.954 2.802 14 8-7.594 32.76-27.594 53.594-60 62.5-40.904 6.631-71.07-8.203-90.5-44.5a403.76 403.76 0 0 1-5.5-19c2.277-3.808 5.61-6.141 10-7z"/><path style="opacity:1" fill="#fefffe" d="M-.5 131.5c6.76 40.428 30.093 65.428 70 75h-70v-75zM165.5 133.5v73h-70c38.669-9.669 62.003-34.002 70-73z"/><path style="opacity:1" d="M113.5 141.5c.958.453 1.792 1.119 2.5 2 3.55 25.909-7.617 40.576-33.5 44-25.88-3.415-37.046-18.082-33.5-44a3.647 3.647 0 0 1 1.5-1c3.102 8.685 8.102 16.185 15 22.5 18.274 9.427 33.107 5.594 44.5-11.5a83.073 83.073 0 0 0 3.5-12z"/><path style="opacity:1" fill="#fea700" d="M50.5 147.5c9.288 23.304 25.621 30.137 49 20.5 7.147-4.799 11.98-11.299 14.5-19.5 1.813 18.192-6.021 30.025-23.5 35.5-19.701 2.937-32.868-4.897-39.5-23.5a84.94 84.94 0 0 1-.5-13z"/></svg>
